Newaita-dark/.DP/22/youtube-indicator-light-sync4.svg

<svg xmlns="http://www.w3.org/2000/svg" xmlns:xlink="http://www.w3.org/1999/xlink" width="22px" height="22px" viewBox="0 0 22 22" version="1.1">
<g id="surface1">
<path style=" stroke:none;fill-rule:nonzero;fill:rgb(93.333334%,93.333334%,93.333334%);fill-opacity:1;" d="M 16.121094 12.820312 C 15.980469 12.78125 15.828125 12.800781 15.691406 12.878906 C 15.65625 12.898438 15.625 12.921875 15.597656 12.945312 C 14.9375 13.355469 14.429688 14.007812 14.214844 14.8125 C 14 15.621094 14.113281 16.4375 14.476562 17.121094 C 14.488281 17.15625 14.503906 17.191406 14.523438 17.226562 C 14.683594 17.5 15.027344 17.59375 15.300781 17.433594 C 15.574219 17.277344 15.667969 16.929688 15.511719 16.65625 C 15.492188 16.625 15.46875 16.59375 15.445312 16.566406 C 15.226562 16.132812 15.160156 15.621094 15.296875 15.101562 C 15.4375 14.585938 15.75 14.175781 16.15625 13.910156 C 16.191406 13.898438 16.226562 13.878906 16.257812 13.863281 C 16.53125 13.707031 16.625 13.359375 16.46875 13.085938 C 16.390625 12.949219 16.261719 12.859375 16.121094 12.820312 Z M 16.121094 12.820312 "/>
<path style=" stroke:none;fill-rule:nonzero;fill:rgb(93.333334%,93.333334%,93.333334%);fill-opacity:1;" d="M 18.441406 18.449219 C 18.582031 18.488281 18.738281 18.472656 18.875 18.390625 C 18.90625 18.371094 18.9375 18.347656 18.96875 18.324219 C 19.625 17.914062 20.132812 17.261719 20.351562 16.457031 C 20.566406 15.652344 20.449219 14.832031 20.085938 14.148438 C 20.074219 14.113281 20.058594 14.078125 20.039062 14.042969 C 19.882812 13.769531 19.535156 13.679688 19.261719 13.835938 C 18.992188 13.992188 18.898438 14.339844 19.054688 14.609375 C 19.074219 14.644531 19.097656 14.675781 19.121094 14.703125 C 19.339844 15.136719 19.402344 15.652344 19.265625 16.167969 C 19.128906 16.679688 18.816406 17.09375 18.40625 17.359375 C 18.371094 17.375 18.339844 17.386719 18.304688 17.40625 C 18.03125 17.566406 17.9375 17.910156 18.097656 18.183594 C 18.175781 18.320312 18.300781 18.414062 18.441406 18.449219 Z M 18.441406 18.449219 "/>
<path style=" stroke:none;fill-rule:nonzero;fill:rgb(93.333334%,93.333334%,93.333334%);fill-opacity:1;" d="M 10.890625 4 C 10.890625 4 4.933594 4 3.445312 4.390625 C 2.644531 4.609375 1.988281 5.269531 1.765625 6.082031 C 1.375 7.574219 1.375 10.660156 1.375 10.660156 C 1.375 10.660156 1.375 13.765625 1.765625 15.238281 C 1.988281 16.050781 2.628906 16.695312 3.445312 16.914062 C 4.949219 17.320312 10.890625 17.320312 10.890625 17.320312 C 10.890625 17.320312 12.363281 17.320312 14.03125 17.273438 C 13.785156 16.78125 13.644531 16.226562 13.644531 15.636719 C 13.644531 13.621094 15.265625 11.996094 17.28125 11.996094 C 18.523438 11.996094 19.617188 12.613281 20.273438 13.558594 C 20.402344 12.15625 20.402344 10.675781 20.402344 10.675781 C 20.402344 10.675781 20.417969 7.574219 20.011719 6.082031 C 19.792969 5.269531 19.148438 4.625 18.332031 4.40625 C 16.84375 4 10.890625 4 10.890625 4 Z M 9.070312 7.175781 C 9.078125 7.175781 9.085938 7.175781 9.09375 7.175781 C 9.171875 7.179688 9.246094 7.199219 9.3125 7.238281 L 14.378906 10.234375 C 14.679688 10.410156 14.679688 10.847656 14.378906 11.023438 L 9.3125 14.015625 C 9.007812 14.199219 8.621094 13.976562 8.621094 13.621094 L 8.621094 7.636719 C 8.621094 7.382812 8.824219 7.179688 9.070312 7.175781 Z M 9.070312 7.175781 "/>
</g>
</svg>

<svg xmlns="http://www.w3.org/2000/svg" width="22" height="22"><g fill="#bdbdbd"><path d="M16.121 12.82a.56.56 0 0 0-.523.125 3.17 3.17 0 0 0-1.121 4.176.565.565 0 0 0 .824.313.565.565 0 0 0 .144-.868 2.068 2.068 0 0 1 .71-2.656.57.57 0 0 0-.035-1.09zm0 0M18.441 18.45c.141.038.297.019.434-.06.031-.019.063-.042.094-.066a3.178 3.178 0 0 0 1.383-1.867 3.17 3.17 0 0 0-.266-2.309.564.564 0 0 0-.824-.313.568.568 0 0 0-.14.868c.218.434.28.95.144 1.465a2.051 2.051 0 0 1-.86 1.191.569.569 0 0 0 .035 1.09zm0 0"/><path d="M10.89 4s-5.956 0-7.445.39a2.44 2.44 0 0 0-1.68 1.696c-.39 1.488-.39 4.574-.39 4.574s0 3.106.39 4.578a2.392 2.392 0 0 0 1.68 1.676c1.504.406 7.446.406 7.446.406s1.472 0 3.14-.047a3.647 3.647 0 0 1-.386-1.636 3.631 3.631 0 0 1 3.636-3.64c1.242 0 2.336.616 2.992 1.562.13-1.407.13-2.883.13-2.883s.015-3.102-.391-4.59a2.384 2.384 0 0 0-1.68-1.68C16.844 4 10.891 4 10.891 4zM9.07 7.176h.028a.476.476 0 0 1 .214.066l5.067 2.992c.3.176.3.614 0 .79l-5.066 2.992a.457.457 0 0 1-.692-.395V7.637a.46.46 0 0 1 .45-.461zm0 0"/></g></svg>
